Yaru++/actions/16/exchange-positions-clockwise.svg

<svg viewBox="0 0 24 24" xmlns="http://www.w3.org/2000/svg">
  <path d="m4 4v7h8v-7zm1 1h6v5h-6zm8 .078125v1.0117188 2.9101562h1v-2.6445312a6 6 0 0 1 4 5.6445312h1a7 7 0 0 0 -6-6.921875zm-8 6.921875a7 7 0 0 0 6 6.921875v-1.011719-2.910156h-1v2.644531a6 6 0 0 1 -4-5.644531z" fill="#808080"/>
  <path d="m16.5 13a3.499991 3.499991 0 0 0 -3.5 3.5 3.499991 3.499991 0 0 0 .699219 2.09375l.716797-.716797a2.5 2.5 0 0 1 -.416016-1.376953 2.5 2.5 0 0 1 2.5-2.5 2.5 2.5 0 0 1 1.376953.416016l.716797-.716797a3.499991 3.499991 0 0 0 -2.09375-.699219zm2.800781 1.40625-.716797.716797a2.5 2.5 0 0 1 .416016 1.376953 2.5 2.5 0 0 1 -2.5 2.5 2.5 2.5 0 0 1 -1.376953-.416016l-.716797.716797a3.499991 3.499991 0 0 0 2.09375.699219 3.499991 3.499991 0 0 0 3.5-3.5 3.499991 3.499991 0 0 0 -.699219-2.09375z" fill="#1d99f3"/>
</svg>

<svg xmlns="http://www.w3.org/2000/svg" viewBox="0 0 24 24">
 <defs>
  <style id="current-color-scheme" type="text/css">
   .ColorScheme-Text { color:#808080; } .ColorScheme-Highlight { color:#1d99f3; }
  </style>
 </defs>
 <path style="fill:currentColor" class="ColorScheme-Text" d="M 4 4 L 4 11 L 12 11 L 12 4 L 4 4 z M 5 5 L 11 5 L 11 10 L 5 10 L 5 5 z M 13 5.078125 L 13 6.0898438 L 13 9 L 14 9 L 14 6.3554688 A 6 6 0 0 1 18 12 L 19 12 A 7 7 0 0 0 13 5.078125 z M 5 12 A 7 7 0 0 0 11 18.921875 L 11 17.910156 L 11 15 L 10 15 L 10 17.644531 A 6 6 0 0 1 6 12 L 5 12 z"/>
 <path style="fill:currentColor" class="ColorScheme-Highlight" d="M 16.5 13 A 3.499991 3.499991 0 0 0 13 16.5 A 3.499991 3.499991 0 0 0 13.699219 18.59375 L 14.416016 17.876953 A 2.5 2.5 0 0 1 14 16.5 A 2.5 2.5 0 0 1 16.5 14 A 2.5 2.5 0 0 1 17.876953 14.416016 L 18.59375 13.699219 A 3.499991 3.499991 0 0 0 16.5 13 z M 19.300781 14.40625 L 18.583984 15.123047 A 2.5 2.5 0 0 1 19 16.5 A 2.5 2.5 0 0 1 16.5 19 A 2.5 2.5 0 0 1 15.123047 18.583984 L 14.40625 19.300781 A 3.499991 3.499991 0 0 0 16.5 20 A 3.499991 3.499991 0 0 0 20 16.5 A 3.499991 3.499991 0 0 0 19.300781 14.40625 z"/>
</svg>
